bernoullicharts/sin_x__bits.svg

<?xml version="1.0" encoding="utf-8" standalone="no"?>
<!DOCTYPE svg PUBLIC "-//W3C//DTD SVG 1.1//EN"
  "http://www.w3.org/Graphics/SVG/1.1/DTD/svg11.dtd">
<!-- Created with matplotlib (https://matplotlib.org/) -->
<svg height="345.6pt" version="1.1" viewBox="0 0 460.8 345.6" width="460.8pt" xmlns="http://www.w3.org/2000/svg" xmlns:xlink="http://www.w3.org/1999/xlink">
 <defs>
  <style type="text/css">
*{stroke-linecap:butt;stroke-linejoin:round;}
  </style>
 </defs>
 <g id="figure_1">
  <g id="patch_1">
   <path d="M 0 345.6 
L 460.8 345.6 
L 460.8 0 
L 0 0 
z
" style="fill:#ffffff;"/>
  </g>
  <g id="axes_1">
   <g id="patch_2">
    <path d="M 57.6 307.584 
L 414.72 307.584 
L 414.72 41.472 
L 57.6 41.472 
z
" style="fill:#ffffff;"/>
   </g>
   <g id="matplotlib.axis_1">
    <g id="xtick_1">
     <g id="line2d_1">
      <defs>
       <path d="M 0 0 
L 0 3.5 
" id="m341bef6036" style="stroke:#000000;stroke-width:0.8;"/>
      </defs>
      <g>
       <use style="stroke:#000000;stroke-width:0.8;" x="73.800255" xlink:href="#m341bef6036" y="307.584"/>
      </g>
     </g>
     <g id="text_1">
      <text style="font-family:DejaVu Sans;font-size:10px;font-style:normal;font-weight:normal;text-anchor:middle;" transform="rotate(-0, 73.800255, 322.182437)" x="73.800255" y="322.182437">0.0</text>
     </g>
    </g>
    <g id="xtick_2">
     <g id="line2d_2">
      <g>
       <use style="stroke:#000000;stroke-width:0.8;" x="138.744153" xlink:href="#m341bef6036" y="307.584"/>
      </g>
     </g>
     <g id="text_2">
      <text style="font-family:DejaVu Sans;font-size:10px;font-style:normal;font-weight:normal;text-anchor:middle;" transform="rotate(-0, 138.744153, 322.182437)" x="138.744153" y="322.182437">0.2</text>
     </g>
    </g>
    <g id="xtick_3">
     <g id="line2d_3">
      <g>
       <use style="stroke:#000000;stroke-width:0.8;" x="203.688051" xlink:href="#m341bef6036" y="307.584"/>
      </g>
     </g>
     <g id="text_3">
      <text style="font-family:DejaVu Sans;font-size:10px;font-style:normal;font-weight:normal;text-anchor:middle;" transform="rotate(-0, 203.688051, 322.182437)" x="203.688051" y="322.182437">0.4</text>
     </g>
    </g>
    <g id="xtick_4">
     <g id="line2d_4">
      <g>
       <use style="stroke:#000000;stroke-width:0.8;" x="268.631949" xlink:href="#m341bef6036" y="307.584"/>
      </g>
     </g>
     <g id="text_4">
      <text style="font-family:DejaVu Sans;font-size:10px;font-style:normal;font-weight:normal;text-anchor:middle;" transform="rotate(-0, 268.631949, 322.182437)" x="268.631949" y="322.182437">0.6</text>
     </g>
    </g>
    <g id="xtick_5">
     <g id="line2d_5">
      <g>
       <use style="stroke:#000000;stroke-width:0.8;" x="333.575847" xlink:href="#m341bef6036" y="307.584"/>
      </g>
     </g>
     <g id="text_5">
      <text style="font-family:DejaVu Sans;font-size:10px;font-style:normal;font-weight:normal;text-anchor:middle;" transform="rotate(-0, 333.575847, 322.182437)" x="333.575847" y="322.182437">0.8</text>
     </g>
    </g>
    <g id="xtick_6">
     <g id="line2d_6">
      <g>
       <use style="stroke:#000000;stroke-width:0.8;" x="398.519745" xlink:href="#m341bef6036" y="307.584"/>
      </g>
     </g>
     <g id="text_6">
      <text style="font-family:DejaVu Sans;font-size:10px;font-style:normal;font-weight:normal;text-anchor:middle;" transform="rotate(-0, 398.519745, 322.182437)" x="398.519745" y="322.182437">1.0</text>
     </g>
    </g>
    <g id="text_7">
     <text style="font-family:DejaVu Sans;font-size:10px;font-style:normal;font-weight:normal;text-anchor:middle;" transform="rotate(-0, 236.16, 335.860562)" x="236.16" y="335.860562">Probability</text>
    </g>
   </g>
   <g id="matplotlib.axis_2">
    <g id="ytick_1">
     <g id="line2d_7">
      <defs>
       <path d="M 0 0 
L -3.5 0 
" id="me2e48c4926" style="stroke:#000000;stroke-width:0.8;"/>
      </defs>
      <g>
       <use style="stroke:#000000;stroke-width:0.8;" x="57.6" xlink:href="#me2e48c4926" y="293.038709"/>
      </g>
     </g>
     <g id="text_8">
      <text style="font-family:DejaVu Sans;font-size:10px;font-style:normal;font-weight:normal;text-anchor:end;" transform="rotate(-0, 50.6, 296.837927)" x="50.6" y="296.837927">2</text>
     </g>
    </g>
    <g id="ytick_2">
     <g id="line2d_8">
      <g>
       <use style="stroke:#000000;stroke-width:0.8;" x="57.6" xlink:href="#me2e48c4926" y="258.048833"/>
      </g>
     </g>
     <g id="text_9">
      <text style="font-family:DejaVu Sans;font-size:10px;font-style:normal;font-weight:normal;text-anchor:end;" transform="rotate(-0, 50.6, 261.848052)" x="50.6" y="261.848052">3</text>
     </g>
    </g>
    <g id="ytick_3">
     <g id="line2d_9">
      <g>
       <use style="stroke:#000000;stroke-width:0.8;" x="57.6" xlink:href="#me2e48c4926" y="223.058957"/>
      </g>
     </g>
     <g id="text_10">
      <text style="font-family:DejaVu Sans;font-size:10px;font-style:normal;font-weight:normal;text-anchor:end;" transform="rotate(-0, 50.6, 226.858176)" x="50.6" y="226.858176">4</text>
     </g>
    </g>
    <g id="ytick_4">
     <g id="line2d_10">
      <g>
       <use style="stroke:#000000;stroke-width:0.8;" x="57.6" xlink:href="#me2e48c4926" y="188.069082"/>
      </g>
     </g>
     <g id="text_11">
      <text style="font-family:DejaVu Sans;font-size:10px;font-style:normal;font-weight:normal;text-anchor:end;" transform="rotate(-0, 50.6, 191.868301)" x="50.6" y="191.868301">5</text>
     </g>
    </g>
    <g id="ytick_5">
     <g id="line2d_11">
      <g>
       <use style="stroke:#000000;stroke-width:0.8;" x="57.6" xlink:href="#me2e48c4926" y="153.079206"/>
      </g>
     </g>
     <g id="text_12">
      <text style="font-family:DejaVu Sans;font-size:10px;font-style:normal;font-weight:normal;text-anchor:end;" transform="rotate(-0, 50.6, 156.878425)" x="50.6" y="156.878425">6</text>
     </g>
    </g>
    <g id="ytick_6">
     <g id="line2d_12">
      <g>
       <use style="stroke:#000000;stroke-width:0.8;" x="57.6" xlink:href="#me2e48c4926" y="118.089331"/>
      </g>
     </g>
     <g id="text_13">
      <text style="font-family:DejaVu Sans;font-size:10px;font-style:normal;font-weight:normal;text-anchor:end;" transform="rotate(-0, 50.6, 121.888549)" x="50.6" y="121.888549">7</text>
     </g>
    </g>
    <g id="ytick_7">
     <g id="line2d_13">
      <g>
       <use style="stroke:#000000;stroke-width:0.8;" x="57.6" xlink:href="#me2e48c4926" y="83.099455"/>
      </g>
     </g>
     <g id="text_14">
      <text style="font-family:DejaVu Sans;font-size:10px;font-style:normal;font-weight:normal;text-anchor:end;" transform="rotate(-0, 50.6, 86.898674)" x="50.6" y="86.898674">8</text>
     </g>
    </g>
    <g id="ytick_8">
     <g id="line2d_14">
      <g>
       <use style="stroke:#000000;stroke-width:0.8;" x="57.6" xlink:href="#me2e48c4926" y="48.109579"/>
      </g>
     </g>
     <g id="text_15">
      <text style="font-family:DejaVu Sans;font-size:10px;font-style:normal;font-weight:normal;text-anchor:end;" transform="rotate(-0, 50.6, 51.908798)" x="50.6" y="51.908798">9</text>
     </g>
    </g>
    <g id="text_16">
     <text style="font-family:DejaVu Sans;font-size:10px;font-style:normal;font-weight:normal;text-anchor:middle;" transform="rotate(-90, 38.157812, 174.528)" x="38.157812" y="174.528">Average Bits Consumed Per Call</text>
    </g>
   </g>
   <g id="line2d_15">
    <path clip-path="url(#p153c4778f2)" d="M 73.832727 292.198952 
L 77.112066 295.278061 
L 80.391405 290.099559 
L 83.670744 295.488 
L 86.950083 290.939316 
L 90.229421 286.180693 
L 93.50876 289.74966 
L 96.788099 287.440329 
L 100.067438 288.070146 
L 103.346777 287.230389 
L 106.626116 287.930187 
L 109.905455 284.29124 
L 113.184793 283.101584 
L 116.464132 283.521463 
L 119.743471 284.711118 
L 123.02281 281.981908 
L 126.302149 279.812536 
L 129.581488 275.193872 
L 132.860826 281.282111 
L 136.140165 270.855128 
L 139.419504 277.573184 
L 142.698843 271.414966 
L 145.978182 273.09448 
L 149.257521 277.433224 
L 152.53686 271.834844 
L 155.816198 270.015371 
L 159.095537 267.4961 
L 162.374876 270.15533 
L 165.654215 267.985958 
L 168.933554 267.28616 
L 172.212893 262.947416 
L 175.492231 261.477841 
L 178.77157 266.166484 
L 182.050909 258.468712 
L 185.330248 261.82774 
L 188.609587 256.649238 
L 191.888926 252.170534 
L 195.168264 247.971749 
L 198.447603 250.42104 
L 201.726942 261.127942 
L 205.006281 249.161405 
L 208.28562 246.852073 
L 211.564959 251.400757 
L 214.844298 234.325697 
L 218.123636 243.283106 
L 221.402975 231.176609 
L 224.682314 241.95349 
L 227.961653 239.36424 
L 231.240992 234.885535 
L 234.520331 239.29426 
L 237.799669 231.666467 
L 241.079008 232.156325 
L 244.358347 228.447398 
L 247.637686 216.76078 
L 250.917025 220.819605 
L 254.196364 217.040699 
L 257.475702 210.392623 
L 260.755041 212.352056 
L 264.03438 208.853068 
L 267.313719 205.843939 
L 270.593058 205.144141 
L 273.872397 197.586328 
L 277.151736 196.746571 
L 280.431074 194.2273 
L 283.710413 195.486935 
L 286.989752 196.186733 
L 290.269091 179.181653 
L 293.54843 183.940277 
L 296.827769 186.039669 
L 300.107107 187.089365 
L 303.386446 169.174549 
L 306.665785 168.124853 
L 309.945124 174.143111 
L 313.224463 164.415926 
L 316.503802 163.926068 
L 319.78314 159.027485 
L 323.062479 165.115723 
L 326.341818 148.740462 
L 329.621157 153.499085 
L 332.900496 146.221191 
L 336.179835 141.952426 
L 339.459174 138.103539 
L 342.738512 144.191778 
L 346.017851 127.816516 
L 349.29719 126.69684 
L 352.576529 123.407792 
L 355.855868 123.127873 
L 359.135207 119.978784 
L 362.414545 113.960525 
L 365.693884 99.894595 
L 368.973223 96.465588 
L 372.252562 97.795203 
L 375.531901 93.176539 
L 378.81124 95.345911 
L 382.090579 94.156256 
L 385.369917 83.869232 
L 388.649256 73.512229 
L 391.928595 74.282006 
L 395.207934 67.004112 
L 398.487273 53.568 
" style="fill:none;stroke:#1f77b4;stroke-linecap:square;stroke-width:1.5;"/>
   </g>
   <g id="patch_3">
    <path d="M 57.6 307.584 
L 57.6 41.472 
" style="fill:none;stroke:#000000;stroke-linecap:square;stroke-linejoin:miter;stroke-width:0.8;"/>
   </g>
   <g id="patch_4">
    <path d="M 414.72 307.584 
L 414.72 41.472 
" style="fill:none;stroke:#000000;stroke-linecap:square;stroke-linejoin:miter;stroke-width:0.8;"/>
   </g>
   <g id="patch_5">
    <path d="M 57.6 307.584 
L 414.72 307.584 
" style="fill:none;stroke:#000000;stroke-linecap:square;stroke-linejoin:miter;stroke-width:0.8;"/>
   </g>
   <g id="patch_6">
    <path d="M 57.6 41.472 
L 414.72 41.472 
" style="fill:none;stroke:#000000;stroke-linecap:square;stroke-linejoin:miter;stroke-width:0.8;"/>
   </g>
   <g id="text_17">
    <text style="font-family:DejaVu Sans;font-size:12px;font-style:normal;font-weight:normal;text-anchor:middle;" transform="rotate(-0, 236.16, 35.472)" x="236.16" y="35.472">Avg. Bits Consumed by sin(x) Algorithm</text>
   </g>
   <g id="legend_1">
    <g id="patch_7">
     <path d="M 64.6 64.150125 
L 124.646875 64.150125 
Q 126.646875 64.150125 126.646875 62.150125 
L 126.646875 48.472 
Q 126.646875 46.472 124.646875 46.472 
L 64.6 46.472 
Q 62.6 46.472 62.6 48.472 
L 62.6 62.150125 
Q 62.6 64.150125 64.6 64.150125 
z
" style="fill:#ffffff;opacity:0.8;stroke:#cccccc;stroke-linejoin:miter;"/>
    </g>
    <g id="line2d_16">
     <path d="M 66.6 54.570438 
L 86.6 54.570438 
" style="fill:none;stroke:#1f77b4;stroke-linecap:square;stroke-width:1.5;"/>
    </g>
    <g id="line2d_17"/>
    <g id="text_18">
     <text style="font-family:DejaVu Sans;font-size:10px;font-style:normal;font-weight:normal;text-anchor:start;" transform="rotate(-0, 94.6, 58.070438)" x="94.6" y="58.070438">sin(x)</text>
    </g>
   </g>
  </g>
 </g>
 <defs>
  <clipPath id="p153c4778f2">
   <rect height="266.112" width="357.12" x="57.6" y="41.472"/>
  </clipPath>
 </defs>
</svg>

<svg height="460.8" viewBox="0 0 460.8 345.6" width="614.4" xmlns="http://www.w3.org/2000/svg" xmlns:xlink="http://www.w3.org/1999/xlink"><defs><style>*{stroke-linecap:butt;stroke-linejoin:round}</style></defs><g id="figure_1"><path d="M0 345.6h460.8V0H0z" fill="#fff" id="patch_1"/><g id="axes_1"><path d="M57.6 307.584h357.12V41.472H57.6z" fill="#fff" id="patch_2"/><g id="matplotlib.axis_1"><g id="xtick_1"><g id="line2d_1"><defs><path d="M0 0v3.5" id="m341bef6036" stroke="#000" stroke-width=".8"/></defs><use x="73.8" xlink:href="#m341bef6036" y="307.584" stroke="#000" stroke-width=".8"/></g><text x="73.8" y="322.182" font-family="DejaVu Sans" font-size="10" font-weight="400" text-anchor="middle" id="text_1">0.0</text></g><g id="xtick_2"><use x="138.744" xlink:href="#m341bef6036" y="307.584" stroke="#000" stroke-width=".8" id="line2d_2"/><text x="138.744" y="322.182" font-family="DejaVu Sans" font-size="10" font-weight="400" text-anchor="middle" id="text_2">0.2</text></g><g id="xtick_3"><use x="203.688" xlink:href="#m341bef6036" y="307.584" stroke="#000" stroke-width=".8" id="line2d_3"/><text x="203.688" y="322.182" font-family="DejaVu Sans" font-size="10" font-weight="400" text-anchor="middle" id="text_3">0.4</text></g><g id="xtick_4"><use x="268.632" xlink:href="#m341bef6036" y="307.584" stroke="#000" stroke-width=".8" id="line2d_4"/><text x="268.632" y="322.182" font-family="DejaVu Sans" font-size="10" font-weight="400" text-anchor="middle" id="text_4">0.6</text></g><g id="xtick_5"><use x="333.576" xlink:href="#m341bef6036" y="307.584" stroke="#000" stroke-width=".8" id="line2d_5"/><text x="333.576" y="322.182" font-family="DejaVu Sans" font-size="10" font-weight="400" text-anchor="middle" id="text_5">0.8</text></g><g id="xtick_6"><use x="398.52" xlink:href="#m341bef6036" y="307.584" stroke="#000" stroke-width=".8" id="line2d_6"/><text x="398.52" y="322.182" font-family="DejaVu Sans" font-size="10" font-weight="400" text-anchor="middle" id="text_6">1.0</text></g><text x="236.16" y="335.861" font-family="DejaVu Sans" font-size="10" font-weight="400" text-anchor="middle" id="text_7">Probability</text></g><g id="matplotlib.axis_2"><g id="ytick_1"><g id="line2d_7"><defs><path d="M0 0h-3.5" id="me2e48c4926" stroke="#000" stroke-width=".8"/></defs><use x="57.6" xlink:href="#me2e48c4926" y="293.039" stroke="#000" stroke-width=".8"/></g><text x="50.6" y="296.838" font-family="DejaVu Sans" font-size="10" font-weight="400" text-anchor="end" id="text_8">2</text></g><g id="ytick_2"><use x="57.6" xlink:href="#me2e48c4926" y="258.049" stroke="#000" stroke-width=".8" id="line2d_8"/><text x="50.6" y="261.848" font-family="DejaVu Sans" font-size="10" font-weight="400" text-anchor="end" id="text_9">3</text></g><g id="ytick_3"><use x="57.6" xlink:href="#me2e48c4926" y="223.059" stroke="#000" stroke-width=".8" id="line2d_9"/><text x="50.6" y="226.858" font-family="DejaVu Sans" font-size="10" font-weight="400" text-anchor="end" id="text_10">4</text></g><g id="ytick_4"><use x="57.6" xlink:href="#me2e48c4926" y="188.069" stroke="#000" stroke-width=".8" id="line2d_10"/><text x="50.6" y="191.868" font-family="DejaVu Sans" font-size="10" font-weight="400" text-anchor="end" id="text_11">5</text></g><g id="ytick_5"><use x="57.6" xlink:href="#me2e48c4926" y="153.079" stroke="#000" stroke-width=".8" id="line2d_11"/><text x="50.6" y="156.878" font-family="DejaVu Sans" font-size="10" font-weight="400" text-anchor="end" id="text_12">6</text></g><g id="ytick_6"><use x="57.6" xlink:href="#me2e48c4926" y="118.089" stroke="#000" stroke-width=".8" id="line2d_12"/><text x="50.6" y="121.889" font-family="DejaVu Sans" font-size="10" font-weight="400" text-anchor="end" id="text_13">7</text></g><g id="ytick_7"><use x="57.6" xlink:href="#me2e48c4926" y="83.099" stroke="#000" stroke-width=".8" id="line2d_13"/><text x="50.6" y="86.899" font-family="DejaVu Sans" font-size="10" font-weight="400" text-anchor="end" id="text_14">8</text></g><g id="ytick_8"><use x="57.6" xlink:href="#me2e48c4926" y="48.11" stroke="#000" stroke-width=".8" id="line2d_14"/><text x="50.6" y="51.909" font-family="DejaVu Sans" font-size="10" font-weight="400" text-anchor="end" id="text_15">9</text></g><text transform="rotate(-90 38.158 174.528)" x="38.158" y="174.528" font-family="DejaVu Sans" font-size="10" font-weight="400" text-anchor="middle" id="text_16">Average Bits Consumed Per Call</text></g><path clip-path="url(#p153c4778f2)" d="M73.833 292.199l3.28 3.08 3.278-5.18 3.28 5.389 3.28-4.549 3.278-4.758 3.28 3.569 3.28-2.31 3.278.63 3.28-.84 3.28.7 3.278-3.639 3.28-1.19 3.28.42 3.278 1.19 3.28-2.73 3.28-2.168 3.278-4.62 3.28 6.09 3.28-10.428 3.279 6.718 3.279-6.158 3.28 1.68 3.279 4.338 3.279-5.598 3.28-1.82 3.279-2.519 3.279 2.66 3.28-2.17 3.279-.7 3.279-4.339 3.28-1.47 3.279 4.69 3.279-7.698 3.28 3.359 3.279-5.179 3.279-4.478 3.28-4.2 3.279 2.45 3.279 10.707 3.28-11.967 3.279-2.309 3.279 4.549 3.28-17.075 3.279 8.957 3.279-12.106 3.28 10.776 3.279-2.589 3.279-4.478 3.28 4.408 3.279-7.628 3.279.49 3.28-3.709 3.279-11.686 3.279 4.059 3.28-3.78 3.279-6.647 3.279 1.96 3.28-3.5 3.279-3.01 3.28-.699 3.278-7.558 3.28-.84 3.28-2.519 3.278 1.26 3.28.7 3.28-17.005 3.278 4.758 3.28 2.1 3.28 1.05 3.278-17.915 3.28-1.05 3.28 6.018 3.278-9.727 3.28-.49 3.28-4.899 3.278 6.089 3.28-16.376 3.28 4.76 3.278-7.279 3.28-4.269 3.28-3.848 3.279 6.088 3.279-16.375 3.28-1.12 3.279-3.29 3.279-.28 3.28-3.148 3.279-6.018 3.279-14.066 3.28-3.43 3.279 1.33 3.279-4.618 3.28 2.169 3.279-1.19 3.279-10.287 3.28-10.357 3.279.77 3.279-7.278 3.28-13.436" fill="none" stroke="#1f77b4" stroke-linecap="square" stroke-width="1.5" id="line2d_15"/><path d="M57.6 307.584V41.472" fill="none" stroke="#000" stroke-linecap="square" stroke-width=".8" id="patch_3"/><path d="M414.72 307.584V41.472" fill="none" stroke="#000" stroke-linecap="square" stroke-width=".8" id="patch_4"/><path d="M57.6 307.584h357.12" fill="none" stroke="#000" stroke-linecap="square" stroke-width=".8" id="patch_5"/><path d="M57.6 41.472h357.12" fill="none" stroke="#000" stroke-linecap="square" stroke-width=".8" id="patch_6"/><text x="236.16" y="35.472" font-family="DejaVu Sans" font-size="12" font-weight="400" text-anchor="middle" id="text_17">Avg. Bits Consumed by sin(x) Algorithm</text><g id="legend_1"><path d="M64.6 64.15h60.047q2 0 2-2V48.472q0-2-2-2H64.6q-2 0-2 2V62.15q0 2 2 2z" fill="#fff" opacity=".8" stroke="#ccc" id="patch_7"/><path d="M66.6 54.57h20" fill="none" stroke="#1f77b4" stroke-linecap="square" stroke-width="1.5" id="line2d_16"/><text x="94.6" y="58.07" font-family="DejaVu Sans" font-size="10" font-weight="400" id="text_18">sin(x)</text></g></g></g><defs><clipPath id="p153c4778f2"><path d="M57.6 41.472h357.12v266.112H57.6z"/></clipPath></defs></svg>
